svgs/sharp-regular/house-medical.svg

<svg xmlns="http://www.w3.org/2000/svg" viewBox="0 0 576 512"><!--! Font Awesome Pro 6.6.0 by @fontawesome - https://fontawesome.com License - https://fontawesome.com/license (Commercial License) Copyright 2024 Fonticons, Inc. --><path d="M303.5 13.7L288 .5 272.5 13.7l-264 224 31.1 36.6L64 253.5 64 488l0 24 24 0 400 0 24 0 0-24 0-234.5 24.5 20.8 31.1-36.6-264-224zM112 464l0-251.2L288 63.5 464 212.8 464 464l-352 0zM256 192l0 64-64 0 0 64 64 0 0 64 64 0 0-64 64 0 0-64-64 0 0-64-64 0z"/></svg>

<svg xmlns="http://www.w3.org/2000/svg" viewBox="0 0 576 512"><!--! Font Awesome Pro 6.4.2 by @fontawesome - https://fontawesome.com License - https://fontawesome.com/license (Commercial License) Copyright 2023 Fonticons, Inc. --><path d="M303.5 13.7L288 .5 272.5 13.7l-264 224 31.1 36.6L64 253.5V488v24H88 488h24V488 253.5l24.5 20.8 31.1-36.6-264-224zM112 464V212.8L288 63.5 464 212.8V464H112zM256 192v64H192v64h64v64h64V320h64V256H320V192H256z"/></svg>
